svgs/1F47E.svg

<svg xmlns="http://www.w3.org/2000/svg" xmlns:xlink="http://www.w3.org/1999/xlink" preserveAspectRatio="none" viewBox="0 0 72 72"><defs><path id="a" fill="#7E57C2" d="M57.55 57.55H51.4v6.15h6.15v-6.15m-36.95 0h-6.1v6.15h6.1v-6.15M8.35 14.5h-6.2v18.45h6.2V14.5m0-6.15v6.15h6.15V8.35H8.35m36.9 0v12.3H26.8V8.35h-6.2v12.3h-6.1v12.3H8.35v6.15h6.15v12.3h6.1v6.15h6.2V51.4h18.45v6.15h6.15V51.4h6.15V39.1h6.15v-6.15h-6.15v-12.3H51.4V8.35h-6.15m24.6 6.15H63.7v18.45h6.15V14.5m-6.15 0V8.35h-6.15v6.15h6.15z"/><path id="c" fill="#2F2F2F" d="M20.6 28.8v12.3h6.2V28.8h-6.2m24.65 12.3h6.15V28.8h-6.15v12.3z"/><path id="b" fill="none" stroke="#2F2F2F" stroke-linecap="square" stroke-linejoin="miter" stroke-miterlimit="3" stroke-width="3" d="M63.7 14.5V8.35h-6.15v6.15h12.3v18.45H63.7v6.15h-6.15v12.3H51.4v6.15h6.15v6.15H51.4v-6.15h-6.15V51.4H26.8v6.15h-6.2v6.15h-6.1v-6.15h6.1V51.4h-6.1V39.1H8.35v-6.15h-6.2V14.5h6.2V8.35h6.15v6.15H8.35v18.45h6.15v-12.3h6.1V8.35h6.2v12.3h18.45V8.35h6.15v12.3h6.15v12.3h6.15V14.5z"/></defs><g><use xlink:href="#a"/><use xlink:href="#b"/></g><use xlink:href="#c"/></svg>

<svg xmlns="http://www.w3.org/2000/svg" version="1.1" xmlns:xlink="http://www.w3.org/1999/xlink" preserveAspectRatio="none" x="0px" y="0px" width="72px" height="72px" viewBox="0 0 72 72">
<defs>
<g id="Layer0_0_FILL">
<path fill="#7E57C2" stroke="none" d="
M 57.55 57.55
L 51.4 57.55 51.4 63.7 57.55 63.7 57.55 57.55
M 20.6 57.55
L 14.5 57.55 14.5 63.7 20.6 63.7 20.6 57.55
M 8.35 14.5
L 2.15 14.5 2.15 32.95 8.35 32.95 8.35 14.5
M 8.35 8.35
L 8.35 14.5 14.5 14.5 14.5 8.35 8.35 8.35
M 45.25 8.35
L 45.25 20.65 26.8 20.65 26.8 8.35 20.6 8.35 20.6 20.65 14.5 20.65 14.5 32.95 8.35 32.95 8.35 39.1 14.5 39.1 14.5 51.4 20.6 51.4 20.6 57.55 26.8 57.55 26.8 51.4 45.25 51.4 45.25 57.55 51.4 57.55 51.4 51.4 57.55 51.4 57.55 39.1 63.7 39.1 63.7 32.95 57.55 32.95 57.55 20.65 51.4 20.65 51.4 8.35 45.25 8.35
M 69.85 14.5
L 63.7 14.5 63.7 32.95 69.85 32.95 69.85 14.5
M 63.7 14.5
L 63.7 8.35 57.55 8.35 57.55 14.5 63.7 14.5 Z"/>
</g>

<g id="Layer0_1_FILL">
<path fill="#2F2F2F" stroke="none" d="
M 20.6 28.8
L 20.6 41.1 26.8 41.1 26.8 28.8 20.6 28.8
M 45.25 41.1
L 51.4 41.1 51.4 28.8 45.25 28.8 45.25 41.1 Z"/>
</g>

<path id="Layer0_0_1_STROKES" stroke="#2F2F2F" stroke-width="3" stroke-linejoin="miter" stroke-linecap="square" stroke-miterlimit="3" fill="none" d="
M 63.7 14.5
L 63.7 8.35 57.55 8.35 57.55 14.5 63.7 14.5 69.85 14.5 69.85 32.95 63.7 32.95 63.7 39.1 57.55 39.1 57.55 51.4 51.4 51.4 51.4 57.55 57.55 57.55 57.55 63.7 51.4 63.7 51.4 57.55 45.25 57.55 45.25 51.4 26.8 51.4 26.8 57.55 20.6 57.55 20.6 63.7 14.5 63.7 14.5 57.55 20.6 57.55 20.6 51.4 14.5 51.4 14.5 39.1 8.35 39.1 8.35 32.95 2.15 32.95 2.15 14.5 8.35 14.5 8.35 8.35 14.5 8.35 14.5 14.5 8.35 14.5 8.35 32.95 14.5 32.95 14.5 20.65 20.6 20.65 20.6 8.35 26.8 8.35 26.8 20.65 45.25 20.65 45.25 8.35 51.4 8.35 51.4 20.65 57.55 20.65 57.55 32.95 63.7 32.95 63.7 14.5 Z"/>
</defs>

<g id="Camada_1">
<g transform="matrix( 1, 0, 0, 1, 0,0) ">
<use xlink:href="#Layer0_0_FILL"/>

<use xlink:href="#Layer0_0_1_STROKES"/>
</g>

<g transform="matrix( 1, 0, 0, 1, 0,0) ">
<use xlink:href="#Layer0_1_FILL"/>
</g>
</g>
</svg>
